svg/color/gysr.svg

<?xml version="1.0" encoding="UTF-8" ?>
<!DOCTYPE svg PUBLIC "-//W3C//DTD SVG 1.1//EN" "http://www.w3.org/Graphics/SVG/1.1/DTD/svg11.dtd">
<svg width="250pt" height="250pt" viewBox="0 0 250 250" version="1.1" xmlns="http://www.w3.org/2000/svg">
<g id="#ffffffff">
<path fill="#ffffff" opacity="1.00" d=" M 0.00 0.00 L 250.00 0.00 L 250.00 250.00 L 0.00 250.00 L 0.00 0.00 M 43.69 50.68 C 41.23 55.82 41.94 61.75 42.19 67.26 C 41.73 73.02 41.99 78.98 43.71 84.54 C 45.84 88.33 49.55 90.77 53.43 92.51 C 59.32 95.14 65.05 98.09 70.89 100.81 C 76.59 103.93 81.83 107.78 86.86 111.87 C 91.97 116.85 96.55 122.37 100.30 128.45 C 104.79 136.16 107.46 144.67 110.16 153.11 C 111.68 161.25 113.52 169.39 113.53 177.73 L 114.14 177.65 C 114.12 185.79 115.39 193.85 115.76 201.97 C 116.55 207.22 116.00 213.15 119.34 217.64 C 121.23 220.37 124.97 219.93 127.83 219.58 C 131.05 218.68 132.32 215.04 133.03 212.11 C 134.35 204.32 134.44 196.39 135.35 188.55 C 135.57 185.78 135.91 182.99 135.70 180.22 C 136.78 175.87 136.67 171.34 137.35 166.93 C 137.84 161.20 139.72 155.73 140.80 150.10 C 143.61 140.42 147.63 131.10 153.36 122.78 C 158.96 115.47 165.73 109.16 173.45 104.14 C 181.31 99.49 189.70 95.81 197.92 91.85 C 200.63 90.38 203.55 88.81 205.16 86.06 C 207.19 83.26 207.81 79.75 207.58 76.37 C 208.25 70.93 208.08 65.45 208.05 59.99 C 207.95 56.18 207.81 51.92 205.05 48.96 C 201.79 45.11 196.21 44.58 191.54 45.38 C 179.84 47.33 169.11 52.91 159.17 59.16 C 156.14 61.00 153.38 63.25 150.95 65.83 C 145.77 70.45 142.10 76.48 138.77 82.50 C 135.57 88.70 132.77 95.12 130.72 101.80 C 128.04 107.32 127.15 113.49 124.82 119.13 C 123.51 113.88 121.94 108.71 120.10 103.63 C 118.98 100.31 117.87 96.97 116.28 93.84 C 114.38 88.07 111.39 82.76 108.35 77.53 C 105.19 72.58 101.78 67.55 96.99 64.03 C 94.89 61.72 92.28 59.97 89.62 58.38 C 79.80 52.33 69.19 46.98 57.67 45.27 C 52.57 44.44 46.31 45.76 43.69 50.68 Z" />
</g>
<g id="#178cf8ff">
<path fill="#178cf8" opacity="1.00" d=" M 43.69 50.68 C 46.31 45.76 52.57 44.44 57.67 45.27 C 69.19 46.98 79.80 52.33 89.62 58.38 C 92.28 59.97 94.89 61.72 96.99 64.03 C 92.66 61.87 87.87 60.61 83.01 60.95 C 69.87 61.37 56.70 60.50 43.58 61.40 C 43.10 63.35 42.60 65.29 42.19 67.26 C 41.94 61.75 41.23 55.82 43.69 50.68 Z" />
</g>
<g id="#178af8ff">
<path fill="#178af8" opacity="1.00" d=" M 191.54 45.38 C 196.21 44.58 201.79 45.11 205.05 48.96 C 207.81 51.92 207.95 56.18 208.05 59.99 C 208.08 65.45 208.25 70.93 207.58 76.37 C 207.27 72.91 206.95 69.46 206.81 65.99 C 203.93 65.30 200.98 64.82 198.01 64.90 C 188.68 65.05 179.34 64.96 170.01 64.99 C 163.65 65.02 157.22 64.53 150.95 65.83 C 153.38 63.25 156.14 61.00 159.17 59.16 C 169.11 52.91 179.84 47.33 191.54 45.38 Z" />
</g>
<g id="#1680f6ff">
<path fill="#1680f6" opacity="1.00" d=" M 43.58 61.40 C 56.70 60.50 69.87 61.37 83.01 60.95 C 87.87 60.61 92.66 61.87 96.99 64.03 C 101.78 67.55 105.19 72.58 108.35 77.53 C 104.99 76.56 101.53 75.85 98.02 75.93 C 84.33 76.08 70.63 76.02 56.94 75.94 C 50.88 75.18 47.82 81.29 43.71 84.54 C 41.99 78.98 41.73 73.02 42.19 67.26 C 42.60 65.29 43.10 63.35 43.58 61.40 Z" />
</g>
<g id="#157ef5ff">
<path fill="#157ef5" opacity="1.00" d=" M 150.95 65.83 C 157.22 64.53 163.65 65.02 170.01 64.99 C 179.34 64.96 188.68 65.05 198.01 64.90 C 200.98 64.82 203.93 65.30 206.81 65.99 C 206.95 69.46 207.27 72.91 207.58 76.37 C 207.81 79.75 207.19 83.26 205.16 86.06 C 205.34 84.70 205.49 83.35 205.64 81.99 C 188.43 81.95 171.21 82.03 154.00 81.97 C 148.91 81.86 143.82 81.94 138.77 82.50 C 142.10 76.48 145.77 70.45 150.95 65.83 Z" />
</g>
<g id="#1576f3ff">
<path fill="#1576f3" opacity="1.00" d=" M 43.71 84.54 C 47.82 81.29 50.88 75.18 56.94 75.94 C 70.63 76.02 84.33 76.08 98.02 75.93 C 101.53 75.85 104.99 76.56 108.35 77.53 C 111.39 82.76 114.38 88.07 116.28 93.84 C 114.68 92.35 112.96 90.39 110.54 90.72 C 102.02 91.20 93.48 90.98 84.95 90.94 C 78.38 90.29 75.09 97.00 70.89 100.81 C 65.05 98.09 59.32 95.14 53.43 92.51 C 49.55 90.77 45.84 88.33 43.71 84.54 Z" />
</g>
<g id="#1472f2ff">
<path fill="#1472f2" opacity="1.00" d=" M 138.77 82.50 C 143.82 81.94 148.91 81.86 154.00 81.97 C 171.21 82.03 188.43 81.95 205.64 81.99 C 205.49 83.35 205.34 84.70 205.16 86.06 C 203.55 88.81 200.63 90.38 197.92 91.85 C 189.70 95.81 181.31 99.49 173.45 104.14 C 173.50 102.88 173.55 101.62 173.62 100.36 C 165.76 99.64 157.87 100.15 150.00 100.03 C 143.56 100.08 136.82 99.17 130.72 101.80 C 132.77 95.12 135.57 88.70 138.77 82.50 Z" />
</g>
<g id="#146cf1ff">
<path fill="#146cf1" opacity="1.00" d=" M 110.54 90.72 C 112.96 90.39 114.68 92.35 116.28 93.84 C 117.87 96.97 118.98 100.31 120.10 103.63 C 112.20 102.74 104.15 102.70 96.24 103.30 C 92.27 104.98 89.86 108.93 86.86 111.87 C 81.83 107.78 76.59 103.93 70.89 100.81 C 75.09 97.00 78.38 90.29 84.95 90.94 C 93.48 90.98 102.02 91.20 110.54 90.72 Z" />
</g>
<g id="#1362efff">
<path fill="#1362ef" opacity="1.00" d=" M 130.72 101.80 C 136.82 99.17 143.56 100.08 150.00 100.03 C 157.87 100.15 165.76 99.64 173.62 100.36 C 173.55 101.62 173.50 102.88 173.45 104.14 C 165.73 109.16 158.96 115.47 153.36 122.78 C 144.45 120.21 135.13 121.18 126.00 121.06 C 121.31 121.11 116.62 120.87 111.94 121.01 C 106.82 120.76 104.14 125.95 100.30 128.45 C 96.55 122.37 91.97 116.85 86.86 111.87 C 89.86 108.93 92.27 104.98 96.24 103.30 C 104.15 102.70 112.20 102.74 120.10 103.63 C 121.94 108.71 123.51 113.88 124.82 119.13 C 127.15 113.49 128.04 107.32 130.72 101.80 Z" />
</g>
<g id="#1152ecff">
<path fill="#1152ec" opacity="1.00" d=" M 100.30 128.45 C 104.14 125.95 106.82 120.76 111.94 121.01 C 116.62 120.87 121.31 121.11 126.00 121.06 C 135.13 121.18 144.45 120.21 153.36 122.78 C 147.63 131.10 143.61 140.42 140.80 150.10 C 140.08 149.12 139.37 148.14 138.67 147.16 C 131.14 147.00 123.58 146.75 116.06 147.12 C 112.69 147.08 111.43 150.64 110.16 153.11 C 107.46 144.67 104.79 136.16 100.30 128.45 Z" />
</g>
<g id="#0f3ee7ff">
<path fill="#0f3ee7" opacity="1.00" d=" M 110.16 153.11 C 111.43 150.64 112.69 147.08 116.06 147.12 C 123.58 146.75 131.14 147.00 138.67 147.16 C 139.37 148.14 140.08 149.12 140.80 150.10 C 139.72 155.73 137.84 161.20 137.35 166.93 C 136.67 171.34 136.78 175.87 135.70 180.22 C 135.36 179.21 135.00 178.20 134.64 177.21 C 127.81 176.95 120.93 176.63 114.14 177.65 L 113.53 177.73 C 113.52 169.39 111.68 161.25 110.16 153.11 Z" />
</g>
<g id="#0c25e2ff">
<path fill="#0c25e2" opacity="1.00" d=" M 114.14 177.65 C 120.93 176.63 127.81 176.95 134.64 177.21 C 135.00 178.20 135.36 179.21 135.70 180.22 C 135.91 182.99 135.57 185.78 135.35 188.55 C 134.44 196.39 134.35 204.32 133.03 212.11 C 132.32 215.04 131.05 218.68 127.83 219.58 C 124.97 219.93 121.23 220.37 119.34 217.64 C 116.00 213.15 116.55 207.22 115.76 201.97 C 115.39 193.85 114.12 185.79 114.14 177.65 Z" />
</g>
</svg>

<?xml version="1.0" encoding="utf-8"?>
<!-- Generator: Adobe Illustrator 26.0.3, SVG Export Plug-In . SVG Version: 6.00 Build 0)  -->
<svg version="1.1" id="Layer_1" xmlns="http://www.w3.org/2000/svg" xmlns:xlink="http://www.w3.org/1999/xlink" x="0px" y="0px"
	 viewBox="0 0 250 250" style="enable-background:new 0 0 250 250;" xml:space="preserve">
<style type="text/css">
	.st0{fill:#178CF8;}
	.st1{fill:#178AF8;}
	.st2{fill:#1680F6;}
	.st3{fill:#157EF5;}
	.st4{fill:#1576F3;}
	.st5{fill:#1472F2;}
	.st6{fill:#146CF1;}
	.st7{fill:#1362EF;}
	.st8{fill:#1152EC;}
	.st9{fill:#0F3EE7;}
	.st10{fill:#0C25E2;}
</style>
<g id="_x23_178cf8ff">
	<path class="st0" d="M43.7,50.7c2.6-4.9,8.9-6.2,14-5.4c11.5,1.7,22.1,7.1,32,13.1c2.7,1.6,5.3,3.3,7.4,5.6
		c-4.3-2.2-9.1-3.4-14-3.1c-13.1,0.4-26.3-0.5-39.4,0.5c-0.5,1.9-1,3.9-1.4,5.9C41.9,61.8,41.2,55.8,43.7,50.7z"/>
</g>
<g id="_x23_178af8ff">
	<path class="st1" d="M191.5,45.4c4.7-0.8,10.2-0.3,13.5,3.6c2.8,3,2.9,7.2,3,11c0,5.5,0.2,10.9-0.5,16.4c-0.3-3.5-0.6-6.9-0.8-10.4
		c-2.9-0.7-5.8-1.2-8.8-1.1c-9.3,0.2-18.7,0.1-28,0.1c-6.4,0-12.8-0.5-19.1,0.8c2.4-2.6,5.2-4.8,8.2-6.7
		C169.1,52.9,179.8,47.3,191.5,45.4z"/>
</g>
<g id="_x23_1680f6ff">
	<path class="st2" d="M43.6,61.4c13.1-0.9,26.3,0,39.4-0.5c4.9-0.3,9.7,0.9,14,3.1c4.8,3.5,8.2,8.6,11.4,13.5
		c-3.4-1-6.8-1.7-10.3-1.6c-13.7,0.2-27.4,0.1-41.1,0c-6.1-0.8-9.1,5.3-13.2,8.6C42,79,41.7,73,42.2,67.3
		C42.6,65.3,43.1,63.3,43.6,61.4z"/>
</g>
<g id="_x23_157ef5ff">
	<path class="st3" d="M150.9,65.8c6.3-1.3,12.7-0.8,19.1-0.8c9.3,0,18.7,0.1,28-0.1c3-0.1,5.9,0.4,8.8,1.1c0.1,3.5,0.5,6.9,0.8,10.4
		c0.2,3.4-0.4,6.9-2.4,9.7c0.2-1.4,0.3-2.7,0.5-4.1c-17.2,0-34.4,0-51.6,0c-5.1-0.1-10.2,0-15.2,0.5
		C142.1,76.5,145.8,70.4,150.9,65.8z"/>
</g>
<g id="_x23_1576f3ff">
	<path class="st4" d="M43.7,84.5c4.1-3.2,7.2-9.4,13.2-8.6c13.7,0.1,27.4,0.1,41.1,0c3.5-0.1,7,0.6,10.3,1.6c3,5.2,6,10.5,7.9,16.3
		c-1.6-1.5-3.3-3.4-5.7-3.1c-8.5,0.5-17.1,0.3-25.6,0.2c-6.6-0.7-9.9,6.1-14.1,9.9c-5.8-2.7-11.6-5.7-17.5-8.3
		C49.5,90.8,45.8,88.3,43.7,84.5z"/>
</g>
<g id="_x23_1472f2ff">
	<path class="st5" d="M138.8,82.5c5.1-0.6,10.1-0.6,15.2-0.5c17.2,0.1,34.4,0,51.6,0c-0.1,1.4-0.3,2.7-0.5,4.1
		c-1.6,2.8-4.5,4.3-7.2,5.8c-8.2,4-16.6,7.6-24.5,12.3c0.1-1.3,0.1-2.5,0.2-3.8c-7.9-0.7-15.8-0.2-23.6-0.3
		c-6.4,0.1-13.2-0.9-19.3,1.8C132.8,95.1,135.6,88.7,138.8,82.5z"/>
</g>
<g id="_x23_146cf1ff">
	<path class="st6" d="M110.5,90.7c2.4-0.3,4.1,1.6,5.7,3.1c1.6,3.1,2.7,6.5,3.8,9.8c-7.9-0.9-15.9-0.9-23.9-0.3
		c-4,1.7-6.4,5.6-9.4,8.6c-5-4.1-10.3-7.9-16-11.1c4.2-3.8,7.5-10.5,14.1-9.9C93.5,91,102,91.2,110.5,90.7z"/>
</g>
<g id="_x23_1362efff">
	<path class="st7" d="M130.7,101.8c6.1-2.6,12.8-1.7,19.3-1.8c7.9,0.1,15.8-0.4,23.6,0.3c-0.1,1.3-0.1,2.5-0.2,3.8
		c-7.7,5-14.5,11.3-20.1,18.6c-8.9-2.6-18.2-1.6-27.4-1.7c-4.7,0.1-9.4-0.2-14.1,0c-5.1-0.2-7.8,4.9-11.6,7.4
		c-3.8-6.1-8.3-11.6-13.4-16.6c3-2.9,5.4-6.9,9.4-8.6c7.9-0.6,16-0.6,23.9,0.3c1.8,5.1,3.4,10.2,4.7,15.5
		C127.2,113.5,128,107.3,130.7,101.8z"/>
</g>
<g id="_x23_1152ecff">
	<path class="st8" d="M100.3,128.4c3.8-2.5,6.5-7.7,11.6-7.4c4.7-0.1,9.4,0.1,14.1,0c9.1,0.1,18.4-0.8,27.4,1.7
		c-5.7,8.3-9.8,17.6-12.6,27.3c-0.7-1-1.4-2-2.1-2.9c-7.5-0.2-15.1-0.4-22.6,0c-3.4,0-4.6,3.5-5.9,6
		C107.5,144.7,104.8,136.2,100.3,128.4z"/>
</g>
<g id="_x23_0f3ee7ff">
	<path class="st9" d="M110.2,153.1c1.3-2.5,2.5-6,5.9-6c7.5-0.4,15.1-0.1,22.6,0c0.7,1,1.4,2,2.1,2.9c-1.1,5.6-3,11.1-3.4,16.8
		c-0.7,4.4-0.6,8.9-1.7,13.3c-0.3-1-0.7-2-1.1-3c-6.8-0.3-13.7-0.6-20.5,0.4l-0.6,0.1C113.5,169.4,111.7,161.2,110.2,153.1z"/>
</g>
<g id="_x23_0c25e2ff">
	<path class="st10" d="M114.1,177.6c6.8-1,13.7-0.7,20.5-0.4c0.4,1,0.7,2,1.1,3c0.2,2.8-0.1,5.6-0.3,8.3c-0.9,7.8-1,15.8-2.3,23.6
		c-0.7,2.9-2,6.6-5.2,7.5c-2.9,0.3-6.6,0.8-8.5-1.9c-3.3-4.5-2.8-10.4-3.6-15.7C115.4,193.9,114.1,185.8,114.1,177.6z"/>
</g>
</svg>
